!!!id: EG005
!!!page: 128-129
!!!COM: Anonymous
!!!LYR: Anonymous
!!!PTL@@FR: Chansons Populaires du Canada
!!!OTL@@FR: Ah! Si mon moine voulait danser!
!!!PUB: G. E. Desbarats
!!!YEM:
!!!PDT: 1865
!!!SMA:
!!!OMD:
!!!AGN-Laforte:
!!!AGN-type:
!!!AGN-rime:
**kern
*clefG2
*k[f#]
*G:
*M2/8
*
*
8d
=1
8g
8b/
=2
8b/
16a
16g
=3
8a
8b/
=4
8.b/
16a
!!LO:PB:g=original
=5
8g
8b/
=6
8b/
16a
16g
=7
8a
8b/
=8
8g
16r
16d
=9
8g
8b/
!!LO:PB:g=original
=10
8b/
16a
16g
=11
8a
8a
=12
8.b/
16a
=13
8g
8b/
=14
8b/
16a
16g
=15
8a
8b/
!!LO:PB:g=original
=16
8g
8r
==17
1r
==18
8.g
16b/
=19
8dd
8dd
=20
4cc
=21
8.b
16a
!!LO:PB:g=original
=22
8.g
16b/
=23
8dd
8dd
=24
4cc
=25
8.b/
16a
=26
8g
8b/
=27
8b/
16a
16g
!!LO:PB:g=original
=28
8a
8a
=29
8.b/
16a
=30
8g
8b/
=31
8b/
16a
16g
=32
8a
8b/
=33
8g
==||
8r
==||
*
*
==|
!!!RWG: First eighth note of m. 3 unclear in original (either 'a' or 'b', 'a' falls in line with later similar passage)
!!!RWG: Same issue as above with second note (16th) in m.10 and first note of m.12 (presumed 'a' and 'b' respectively, consistent with similar passages)
*-
